**kern	**kern	**dynam
*part1	*part1	*part1
*staff2	*staff1	*
*I"Piano	*	*
*clefF4	*clefG2	*
*k[f#]	*k[f#]	*
=1	=1	=1
*	*^	*
!	!	!	!LO:DY:a
4BBB	(8ddnL 8ff#	4f#	>
.	8cc#X 8ee	.	.
8D 8F#	8bJ 8dd	8r	.
*	*v	*v	*
=	=	=
4DD	8aL 8ccn	.
.	8g 8b	.
!	!	!LO:DY:a
8D 8A	8dJ) 8a	] mp
=	=	=
!	!	!LO:DY:a
4GG	(8BL 8g	<
.	8d 8a	.
8D 8G	8gJ 8b	[
=	=	=
4GG	8bL 8dd	.
.	8a 8cc	.
8D 8G	8gJ) 8b	.
=	=	=
!	!	!LO:DY:a
!	!	!LO:DY:a
4CC	(8eL 8cc	mp <
.	8g 8dd	.
8E 8c	8ccJ 8ee	[
=	=	=
4CC	8eeL 8gg	.
.	8dd 8ff#	.
8E 8c	8ccJ) 8ee	.
=	=	=
4GG	(8bL 8dd	.
!	!LO:TX:b:i:t=dim.	!
.	8g 8b	.
8D 8B	8aJ) 8cc	.
=	=	=
4GG	(8bL 8dd	.
.	8g 8b	.
8D 8B	8aJ) 8cc	.
=	=	=
4DD	(8bL 8dd	.
.	8g 8b	.
8D 8G	8aJ) 8cc	.
=	=	=
*-	*-	*-
!!!system-decoration: {(s1,s2)}
